icons/umsl.svg

<?xml version="1.0" encoding="UTF-8" standalone="no"?>
<svg
   xmlns:dc="http://purl.org/dc/elements/1.1/"
   xmlns:cc="http://creativecommons.org/ns#"
   xmlns:rdf="http://www.w3.org/1999/02/22-rdf-syntax-ns#"
   xmlns:svg="http://www.w3.org/2000/svg"
   xmlns="http://www.w3.org/2000/svg"
   xmlns:sodipodi="http://sodipodi.sourceforge.net/DTD/sodipodi-0.dtd"
   xmlns:inkscape="http://www.inkscape.org/namespaces/inkscape"
   id="svg28"
   version="1.1"
   width="300"
   viewBox="0 0 299.99549 300.00622"
   height="300"
   xml:space="preserve"
   sodipodi:docname="umsl.svg"
   inkscape:version="0.92.4 (5da689c313, 2019-01-14)"><sodipodi:namedview
     pagecolor="#ffffff"
     bordercolor="#666666"
     borderopacity="1"
     objecttolerance="10"
     gridtolerance="10"
     guidetolerance="10"
     inkscape:pageopacity="0"
     inkscape:pageshadow="2"
     inkscape:window-width="1920"
     inkscape:window-height="1057"
     id="namedview8"
     showgrid="false"
     borderlayer="true"
     inkscape:showpageshadow="false"
     inkscape:zoom="2"
     inkscape:cx="96.713362"
     inkscape:cy="166.94616"
     inkscape:window-x="-8"
     inkscape:window-y="-8"
     inkscape:window-maximized="1"
     inkscape:current-layer="svg28" /><metadata
     id="metadata34"><rdf:RDF><cc:Work
         rdf:about=""><dc:format>image/svg+xml</dc:format><dc:type
           rdf:resource="http://purl.org/dc/dcmitype/StillImage" /><dc:title></dc:title></cc:Work></rdf:RDF></metadata><defs
     id="defs32" /><g
     id="g26"
     transform="matrix(1.254672,0,0,-1.254672,-232.85929,614.43205)"
     style="opacity:1"><g
       id="g24"
       transform="matrix(0.5,0,0,0.5,154.02,186.65)"
       style=""><path
         id="path4"
         transform="matrix(1.2967547,0,0,-1.2967547,110.58544,565.79019)"
         d="m 62.035156,21.857422 -0.0059,0.0039 0.0098,0.0078 z m 0.0039,0.01172 13.134766,46.222656 c 0,0 4.211474,-0.853128 5.833984,-1.181641 0.922303,1.871626 7.107113,14.419786 11.386719,23.105469 -1.27469,-0.02079 -5.802309,-0.716829 -11.845703,-4.001953 C 76.1625,83.629997 69.773949,75.685649 69.783203,75.6875 l 4.291016,-10.421875 c 0,0 -2.646606,-3.829987 -17.957031,-6.677734 -16.61302,-3.09003 -28.78711,6.140625 -28.78711,6.140625 0,0 5.47275,0.307255 11.066406,2.02539 9.830489,3.625011 13.224272,8.466579 17.609375,17.675782 3.824933,7.784354 7.782244,15.830662 20.75,22.375002 9.694355,4.89295 16.169287,5.62126 21.373047,6.20703 3.900504,0.43956 6.406604,1.33157 9.650394,2.72656 0.95978,0.41286 1.86983,1.21503 2.6875,2.11328 -0.97939,1.56826 -1.533,2.9638 -1.70703,4.75391 -0.34248,0.54254 -0.66284,1.08987 -0.93555,1.64648 -1.7744,3.61827 -1.84928,7.18199 -0.21289,10.03711 l 2.01367,3.74024 c 1.1468,2.00193 3.05466,3.49469 5.52734,4.40429 l -80.968746,7.01563 -1.97461,13.40625 c 0,0 4.533595,3.56801 4.53125,8.18359 l -1.890625,17.88086 c -0.631607,6.17295 -1.00553,10.55348 -1.007812,13.85156 0,0.98474 0.03411,1.8743 0.103515,2.68555 1.12743,13.217 10.177728,22.60361 24.740235,26.06641 l -4.757813,9.17383 c 0,0 13.355366,-9.88324 30.671875,-13.20313 31.097621,-5.96197 66.709771,19.07933 101.498101,13.09763 l 28.65429,46.63867 c 1.58932,2.22093 4.67652,2.73589 6.89844,1.15039 2.06435,-1.47599 2.63318,-4.23425 1.43555,-6.40039 -1.43634,-2.58441 -23.72464,-44.24027 -23.72464,-44.24027 13.06706,-3.61317 23.48792,-12.38915 28.74023,-22.20312 l 27.78906,-3.31055 c 1.11738,-0.12878 15.79909,-2.47161 22.00782,-9.27148 8.35809,-9.15393 0.082,-31.66211 0.082,-31.66211 0,0 -10.17431,15.63115 -23.14453,14.42383 1.15238,-10.49676 2.35038,-21.56903 3.51562,-32.28907 0.80972,-7.63691 1.37089,-7.95499 2.73047,-8.71875 l 3.38477,-1.90039 1.33984,-14.75195 c -0.006,8.8e-4 -28.64662,4.21024 -36.70898,4.6582 -8.06321,0.44959 -17.68092,0.21169 -21.55274,0.53711 -9.18847,0.78812 -17.22889,4.88494 -22.50976,11.07813 l -1.53711,-10.11719 -12.69336,1.07813 c 0,0 -8.3139,11.87517 -14.9668,21.3789 l -12.32812,-22.96289 c 4.00601,-4.30385 7.08529,-10.39044 3.4707,-15.85937 l -2.01563,-3.73633 c -1.73649,-2.45774 -4.81725,-4.01468 -8.63672,-4.51953 -1.31801,-0.90897 -3.00693,-1.49752 -4.94531,-1.73242 -0.59595,-2.17817 -0.26491,-3.88078 1.49024,-5.00586 9.87326,-6.829365 13.5221,-18.644347 12.63867,-26.693364 -2.33815,-12.974543 -11.16839,-18.597899 -14.9668,-24.853515 -6.37777,-10.50376 -4.49609,-27.644532 -4.49609,-27.644532 -9.96897,10.464017 -17.88381,25.746746 -16.63869,44.533202 3.0573,-2.996784 5.56575,-5.936786 9.1289,-7.794921 2.64198,3.706977 6.57573,10.229858 8.03906,16.1875 0.17274,0.94081 0.30966,1.908044 0.39063,2.908203 0.26913,3.30906 -11.01367,6.630859 -11.01367,6.630859 L 97.712891,63.455078 101.1543,55.617188 Z m 4.644532,8.191406 29.638672,31.416015 -7.488282,1.5625 24.521482,34.511719 c 0,0 10.95559,-1.77629 15.23242,-12.140625 4.27652,-10.364335 -9.34961,-27.873047 -9.34961,-27.873047 -2.91832,1.318808 -5.04391,2.840402 -7.66601,5.3125 0.57112,-12.485843 4.53031,-22.434672 11.66796,-32.363281 0,0 -2.9015,13.328368 1.28125,22.150391 4.18152,8.822023 19.45058,21.281796 15.85157,35.253906 -3.66885,14.245564 -12.28525,12.058437 -15.16797,20.318354 l -0.2168,0.66796 c -0.57911,1.99187 -0.13788,3.98996 0.52149,5.58008 l 3.17187,5.22266 c -2.56702,2.16695 -6.10449,3.75982 -9.2207,3.52539 -1.83918,-0.13801 -3.17334,-0.81781 -3.91211,-1.82031 0,0 -1.89054,-4.41601 -6.50977,-7.52149 C 101.4299,108.7489 94.602519,113.28349 77.773432,104.78905 60.943738,96.295245 60.124427,85.125634 53.533203,75.224609 46.94198,65.324572 35.076172,63.533203 35.076172,63.533203 c 12.403003,-1.000557 23.264445,1.572565 33.505859,9.238281 -1.899057,-0.472808 -6.21794,-0.347977 -7.867187,0.433594 0,0 5.712447,15.366745 16.958984,21.480469 11.247771,6.113723 21.986328,4.96289 21.986328,4.962891 L 82.265625,64.349609 76.773438,65.460938 66.677734,30.070312 Z M 132.7715,111.91807 c 1.2504,-0.0495 2.42853,0.0169 3.52735,0.17773 1.86327,2.10309 1.04971,4.8256 0.28311,6.49219 -2.88412,6.06745 -11.81866,10.90726 -19.12305,10.35742 -3.19066,-0.21836 -6.24631,-1.6901 -6.74804,-4.75781 0.61675,-1.00964 1.36963,-1.9958 2.23437,-2.94336 l 0.71117,1.23635 c 0.66702,1.70345 2.46665,2.90694 5.20117,3.11133 5.33714,0.40177 12.04408,-3.05856 14.27735,-7.75391 0.9107,-1.91629 0.85786,-3.58759 0.082,-4.84766 z m 6.1074,0.79091 c 1.76105,0.61666 3.15962,1.57436 4.05468,2.83985 1.49682,2.11913 1.49677,4.9042 -0.004,8.06055 -3.77635,7.94597 -15.48069,14.28702 -25.04688,13.56445 -6.95065,-0.52399 -10.44309,-4.79709 -8.34179,-10.57813 0.5159,0.99236 1.0726,2.00287 1.60936,2.99805 1.35569,2.37053 4.09175,3.82426 7.69922,4.0957 8.13724,0.61384 17.74747,-4.62315 20.98633,-11.43554 0.69172,-1.45672 1.03711,-2.8771 1.03711,-4.20118 0,-1.42432 -0.4003,-2.73862 -1.19922,-3.86914 z m 1.18164,22.88282 13.47265,24.37109 c -0.94414,1.34878 -1.25275,1.7907 -2.14843,3.07031 L 136.99219,137.25 Z m 117.56054,0.89843 -0.16211,1.7793 c -4.35394,2.44672 -5.47912,5.13615 -6.45312,14.35547 l -3.25781,29.96875 c -0.59919,5.13849 -0.60529,6.2826 -0.50196,7.51953 0.22827,2.67902 1.96561,3.56799 6.5,3.18164 0,0 15.22549,-1.87405 20.96289,-7.88672 0,0 2.39821,7.56469 -2.21484,12.50391 -4.61336,4.93675 -17.48633,6.98437 -17.48633,6.98437 l -26.52929,3.0879 c 2.79442,-17.55148 4.26022,-35.3454 6.24023,-53.9668 0.51945,-9.28163 4.57383,-15.75689 10.03516,-16.22266 5.2599,-0.44955 7.3164,-0.62224 12.86718,-1.30469 z m -28.63086,3.90821 -1.84961,17.79101 -1.95312,0.16211 c -9.37738,-10.388 -20.6603,-7.54307 -24.20117,-3.07229 -4.15662,5.24824 1.41382,9.23925 8.73047,12.53711 24.83245,12.85794 21.39293,52.85848 -12.11133,62.74609 -27.40594,8.08791 -47.01997,0.006 -68.21875,-5.5332 -15.6489,-4.08873 -26.99038,-6.82749 -38.777341,-4.7793 -15.919125,2.77246 -25.173828,9.51953 -25.173828,9.51953 0,0 12.696705,-17.13248 43.224609,-16.80859 30.52666,0.32388 54.35517,12.17464 76.40039,5.75195 22.04392,-6.4223 31.71368,-26.65382 14.75195,-38.90039 -6.15636,-4.91221 -13.9814,-7.44589 -14.27148,-16.35156 0.11943,-14.83003 12.36952,-22.18827 22.61914,-22.85938 5.68018,-0.45055 10.05856,0.28238 15.54687,1.32813 1.66451,0.31756 2.64248,-0.0753 3.71485,-1.39651 l 1.56445,-0.13281 z m -51.76367,1.74804 9.01172,59.3379 c 0.82051,5.95251 1.47013,7.45105 3.84375,9.74218 0,0 -17.04586,7.70681 -18.84765,-5.55664 -1.2809,-9.42902 -3.48832,-28.66797 -3.48832,-28.66797 l -22.15625,36.69336 -4.63086,-0.93554 -12.42578,-33.03125 -10.4707,28.40039 c -5.69539,-0.52994 -10.0468,-0.45715 -14.94336,-0.0215 l 25.67188,-61.82812 2.06054,-0.17774 16.13282,36.06446 27.87695,-39.81836 z m -58.39062,1.13868 c 0.96572,0.1578 2.01571,0.14558 2.90625,0.15431 l -3.88281,8.25196 z m -8.57032,7.27929 -0.25976,1.7793 c -4.58474,2.2598 -5.91116,4.97224 -6.97461,14.40625 -2.05249,14.74605 -1.90018,27.64164 -5.775387,42.27344 -14.213327,2.94211 -24.882757,10.62397 -30.667968,15.73828 -17.628048,0.12777 -24.593897,-10.14397 -25.294922,-19.93555 -0.238318,-2.78541 0.09714,-7.38177 0.890625,-15.13281 0.751849,-8.50365 2.425689,-19.10962 2.27539,-25.625 -0.299208,-3.50185 -1.227798,-4.67418 -4.125,-5.77539 l 0.263672,-1.78711 c 9.512534,-0.49712 19.057221,-1.38506 26.794922,-2.28516 l -0.263672,1.78711 c -4.469002,2.35542 -5.799746,5.06036 -6.767578,14.38086 -0.493532,5.33358 -3.165041,24.88516 -3.070312,32.13281 0.141007,10.78835 16.243143,13.27618 23.378906,2.67774 2.47467,-3.84468 2.771419,-5.2169 3.90039,-16.32031 l 2.279297,-20.75 c 0.414366,-5.06755 1.629752,-12.31258 -3.74414,-13.48438 l 0.158203,-1.78125 c 9.64508,-0.51303 18.983774,-1.35592 27.001944,-2.29883 z m 86.64258,87.85547 24.91797,45.07031 c 0.37016,0.66628 0.11915,1.50156 -0.5664,1.85938 -0.68479,0.35859 -1.54042,0.11041 -1.91211,-0.55664 -8.45324,-15.23054 -16.96837,-30.431 -25.46475,-45.631 1.31741,-0.29174 1.85021,-0.44902 3.02529,-0.74205 z"
         style="fill:#ffffff;fill-opacity:1;stroke-width:0.6169247"
         inkscape:connector-curvature="0"
         sodipodi:nodetypes="cccccccccccsccccccccccccccccccccsccccccccccccccccccccccccccccccccccccccccccccccccccccccccccccccccccccccccccccccccccccscccccccccccccccccccccccscssccssccccccccccsccccccccccccccccccccccccccccscccccccccccc" /></g></g></svg>

<?xml version="1.0" encoding="UTF-8" standalone="no"?>
<svg
   xmlns:dc="http://purl.org/dc/elements/1.1/"
   xmlns:cc="http://creativecommons.org/ns#"
   xmlns:rdf="http://www.w3.org/1999/02/22-rdf-syntax-ns#"
   xmlns:svg="http://www.w3.org/2000/svg"
   xmlns="http://www.w3.org/2000/svg"
   id="svg28"
   version="1.1"
   width="300"
   viewBox="0 0 299.99549 300.00622"
   height="300"
   xml:space="preserve"><metadata
     id="metadata34"><rdf:RDF><cc:Work
         rdf:about=""><dc:format>image/svg+xml</dc:format><dc:type
           rdf:resource="http://purl.org/dc/dcmitype/StillImage" /><dc:title></dc:title></cc:Work></rdf:RDF></metadata><defs
     id="defs32" /><g
     id="g26"
     transform="matrix(1.5423437,0,0,-1.5423437,-322.83752,724.19992)"><g
       id="g24"
       transform="matrix(0.5,0,0,0.5,154.02,186.65)"><path
         id="path4"
         transform="matrix(1.2967547,0,0,-1.2967547,110.58544,565.79019)"
         d="M 62.035156 21.857422 L 62.029297 21.861328 L 62.039062 21.869141 L 62.035156 21.857422 z M 62.039062 21.869141 L 75.173828 68.091797 C 75.173828 68.091797 79.385302 67.238669 81.007812 66.910156 C 81.930115 68.781782 88.114925 81.329942 92.394531 90.015625 C 91.119841 89.994835 86.592222 89.298796 80.548828 86.013672 C 76.1625 83.629997 69.773949 75.685649 69.783203 75.6875 L 74.074219 65.265625 C 74.074219 65.265625 71.427468 61.436417 56.117188 58.587891 C 39.504023 55.49864 27.330078 64.728516 27.330078 64.728516 C 27.330078 64.728516 32.802828 65.035771 38.396484 66.753906 C 42.126534 68.036369 47.884785 70.817637 51.652344 76.476562 C 53.346542 79.022919 54.638569 81.650257 56.005859 84.429688 C 59.830792 92.214042 63.788103 100.26035 76.755859 106.80469 C 86.450214 111.69764 92.925146 112.42595 98.128906 113.01172 C 102.02941 113.45128 104.53551 114.34329 107.7793 115.73828 C 108.73908 116.15114 109.64913 116.95331 110.4668 117.85156 C 110.21339 118.25409 109.97769 118.66138 109.77539 119.07422 C 109.18747 120.27349 108.85819 121.46228 108.75977 122.60547 C 108.41729 123.14801 108.09693 123.69534 107.82422 124.25195 C 106.04982 127.87022 105.97494 131.43394 107.61133 134.28906 L 109.625 138.0293 C 110.7718 140.03123 112.67966 141.52399 115.15234 142.43359 L 34.183594 149.44922 L 32.208984 162.85547 C 32.208984 162.85547 36.742579 166.42348 36.740234 171.03906 L 34.849609 188.91992 C 34.218002 195.09287 33.844079 199.4734 33.841797 202.77148 C 33.841797 203.75622 33.875908 204.64578 33.945312 205.45703 C 35.072742 218.67403 44.12304 228.06064 58.685547 231.52344 L 53.927734 240.69727 C 53.927734 240.69727 67.256007 230.66945 84.599609 227.49414 C 99.065876 224.84519 112.01477 228.12096 127.52734 232.17188 L 136.23633 234.56445 C 151.42744 238.83382 167.04293 243.21785 186.19141 240.57617 C 186.16053 240.58044 186.12851 240.58757 186.09766 240.5918 L 214.75195 287.23047 C 216.34127 289.4514 219.42847 289.96636 221.65039 288.38086 C 223.71474 286.90487 224.28357 284.14661 223.08594 281.98047 L 223.10547 281.9668 L 199.36133 237.74023 C 199.47458 237.70723 199.58572 237.67804 199.69922 237.64453 C 212.45475 233.87975 222.43202 225.91687 228.10156 215.53711 L 255.89062 212.22656 C 257.008 212.09778 271.68971 209.75495 277.89844 202.95508 C 286.25653 193.80115 277.98047 171.29297 277.98047 171.29297 C 277.98047 171.29297 267.80616 186.92412 254.83594 185.7168 C 254.90224 185.08519 254.98301 184.33995 255.08789 183.45312 L 258.35156 153.42773 C 259.16128 145.79082 259.72245 145.47274 261.08203 144.70898 L 264.4668 142.80859 L 265.80664 128.05664 C 265.80064 128.05752 237.16002 132.26688 229.09766 132.71484 C 221.03445 133.16443 211.41674 132.92653 207.54492 133.25195 C 198.35645 134.04007 190.31603 138.13689 185.03516 144.33008 L 183.49805 134.21289 L 170.80469 135.29102 C 170.80469 135.29102 162.49079 147.16619 155.83789 156.66992 L 143.50977 133.70703 C 145.03999 132.06829 146.30149 130.29027 147.19141 128.41797 C 148.09983 126.51013 148.55273 124.6499 148.55273 122.91406 C 148.55273 121.04941 148.02617 119.32754 146.98047 117.84766 L 144.96484 114.11133 C 143.22835 111.65359 140.14759 110.09665 136.32812 109.5918 C 135.01011 108.68283 133.32119 108.09428 131.38281 107.85938 C 131.18393 107.06224 131.06676 106.32715 131.11523 105.80078 C 131.23014 104.55385 131.52041 103.78896 132.87305 102.85352 C 142.74631 96.024155 146.39515 84.209173 145.51172 76.160156 C 143.17357 63.185613 134.34333 57.562257 130.54492 51.306641 C 124.16715 40.802881 126.04883 23.662109 126.04883 23.662109 C 126.04883 23.662109 124.05571 25.707473 121.50781 29.085938 L 121.47852 29.074219 C 121.37827 29.198375 120.21904 30.665726 118.66211 33.150391 C 116.81134 35.992069 114.93713 39.313502 113.47656 42.925781 C 112.00828 46.548671 111.10355 49.920249 110.53906 52.833984 C 109.26511 58.653929 109.31057 62.662363 109.31445 62.890625 L 109.41016 68.195312 L 113.16797 64.449219 C 113.18647 64.429939 115.08669 62.544908 116.99219 61.320312 C 117.59832 60.931651 118.09642 60.644076 118.53906 60.400391 C 121.18104 64.107368 125.11479 70.630249 126.57812 76.587891 C 126.75086 77.528701 126.88778 78.495935 126.96875 79.496094 C 127.23788 82.805154 115.95508 86.126953 115.95508 86.126953 L 97.712891 63.455078 L 101.1543 55.617188 L 62.039062 21.869141 z M 66.683594 30.060547 L 96.322266 61.476562 L 88.833984 63.039062 L 113.35547 97.550781 C 113.35547 97.550781 124.31106 95.774491 128.58789 85.410156 C 132.86441 75.045821 119.23828 57.537109 119.23828 57.537109 C 119.23828 57.537109 117.9153 58.039882 115.77148 59.417969 C 113.62613 60.796055 111.57227 62.849609 111.57227 62.849609 C 111.57227 62.849609 111.43648 55.472849 114.82031 46.117188 C 118.2031 36.760908 123.24023 30.486328 123.24023 30.486328 C 123.24023 30.486328 120.33873 43.814696 124.52148 52.636719 C 128.703 61.458742 143.97206 73.918515 140.37305 87.890625 C 136.7042 102.13619 128.0878 99.949062 125.20508 108.20898 C 125.1432 108.22231 125.08137 108.2323 125.01953 108.24609 A 7.7308173 7.9193746 0 0 1 125.12305 108.46484 C 125.07824 108.60206 125.02998 108.73399 124.98828 108.87695 C 124.40917 110.86882 124.8504 112.86691 125.50977 114.45703 L 128.68164 119.67969 C 126.11462 121.84664 122.57715 123.43951 119.46094 123.20508 C 117.62176 123.06707 116.2876 122.38727 115.54883 121.38477 C 115.54883 121.38477 113.65829 116.96876 109.03906 113.86328 C 101.42991 108.74891 94.602525 113.2835 77.773438 104.78906 C 60.943738 96.295245 60.124427 85.125634 53.533203 75.224609 C 46.94198 65.324572 35.076172 63.533203 35.076172 63.533203 C 35.076172 63.533203 44.715272 62.29287 54.046875 65.269531 C 63.378169 68.247673 68.582031 72.771484 68.582031 72.771484 C 68.582031 72.771484 67.46532 72.425191 64.544922 72.529297 C 61.624585 72.632626 60.714844 73.205078 60.714844 73.205078 C 60.714844 73.205078 66.427291 88.571823 77.673828 94.685547 C 88.921599 100.79927 99.660156 99.648437 99.660156 99.648438 L 82.265625 64.349609 L 76.773438 65.460938 L 66.677734 30.070312 L 66.683594 30.060547 z M 131.99805 109.87305 C 132.00399 109.87418 132.00969 109.87582 132.01562 109.87695 C 132.27659 110.62639 132.55251 111.37388 132.77148 111.91797 C 134.02188 111.8685 135.20001 111.93482 136.29883 112.0957 C 136.39533 112.20866 136.50098 112.31542 136.58594 112.43555 C 137.72879 114.05266 137.72874 116.1788 136.58203 118.58789 C 133.69791 124.65534 124.76337 129.49515 117.45898 128.94531 C 114.49929 128.72245 112.30247 127.60724 111.26758 125.80273 C 110.98356 125.30688 110.80624 124.76149 110.71094 124.1875 C 111.32769 123.17786 112.08057 122.1917 112.94531 121.24414 C 112.63299 120.72975 112.22237 120.10393 111.75195 119.45312 C 111.75493 119.44778 111.75873 119.44284 111.76172 119.4375 C 112.91084 121.02433 113.65625 122.48047 113.65625 122.48047 C 114.32327 124.18392 116.1229 125.38741 118.85742 125.5918 C 124.19456 125.99357 130.9015 122.53324 133.13477 117.83789 C 134.04547 115.9216 133.99263 114.2503 133.2168 112.99023 C 133.2168 112.99023 133.0253 112.54233 132.77148 111.91797 C 132.54384 111.35798 132.27083 110.66012 131.99805 109.87305 z M 138.87891 112.70898 C 140.63996 113.32564 142.03853 114.28334 142.93359 115.54883 C 144.43041 117.66796 144.43036 120.45303 142.92969 123.60938 C 139.15334 131.55535 127.449 137.8964 117.88281 137.17383 C 114.00775 136.88079 111.12723 135.41946 109.77539 133.05664 C 108.74001 131.25049 108.67267 128.99117 109.54102 126.5957 C 109.56663 126.64309 109.58451 126.69334 109.61133 126.74023 L 111.15039 129.59375 C 112.50608 131.96428 115.24214 133.41801 118.84961 133.68945 C 126.98685 134.30329 136.59708 129.0663 139.83594 122.25391 C 140.52766 120.79719 140.87305 119.37681 140.87305 118.05273 C 140.87305 116.62841 140.47275 115.31411 139.67383 114.18359 L 138.87891 112.70898 z M 140.06055 135.5918 L 153.5332 159.96289 C 152.58906 161.31167 152.28045 161.75359 151.38477 163.0332 L 136.99219 137.25 L 140.06055 135.5918 z M 257.62109 136.49023 L 257.45898 138.26953 C 253.10504 140.71625 251.97986 143.40568 251.00586 152.625 L 247.74805 182.59375 C 247.14886 187.73224 247.14276 188.87635 247.24609 190.11328 C 247.47436 192.7923 249.2117 193.68127 253.74609 193.29492 C 253.74609 193.29492 268.97158 191.42087 274.70898 185.4082 C 274.70898 185.4082 277.10719 192.97289 272.49414 197.91211 C 267.88078 202.84886 255.00781 204.89648 255.00781 204.89648 L 228.47852 207.98438 C 228.94664 206.7789 229.84354 199.31692 230.63086 192.46289 L 234.71875 154.01758 C 235.2382 144.73595 239.29258 138.26069 244.75391 137.79492 C 250.01381 137.34537 252.07031 137.17268 257.62109 136.49023 z M 228.99023 140.39844 L 227.14062 158.18945 L 225.1875 158.35156 C 224.44873 157.5102 223.59715 156.71593 222.69336 155.96094 L 222.53125 155.98047 C 222.29376 155.7075 222.03342 155.47051 221.78125 155.2168 C 218.9872 153.11308 215.62428 151.58514 212.10547 151.25586 C 211.08292 151.23116 210.03129 151.26086 208.92773 151.40625 C 205.35426 151.88363 202.55794 153.31057 200.98633 155.2793 C 196.33533 161.96812 205.12762 165.44051 209.7168 167.81641 C 234.54925 180.67435 231.10941 220.67381 197.60547 230.5625 C 170.19921 238.64933 150.58487 230.5705 129.38672 225.0293 C 113.73719 220.94297 102.39634 218.20181 90.609375 220.25 C 74.69025 223.02246 65.435547 229.76953 65.435547 229.76953 C 65.435547 229.76953 78.132252 212.63705 108.66016 212.96094 C 139.18682 213.28482 163.01536 225.13569 185.06055 218.71289 C 207.1045 212.2907 216.77423 192.05907 199.8125 179.8125 C 192.76956 174.72775 189.47722 172.9741 187.52539 169.95117 C 186.35323 168.0999 185.63047 165.91476 185.54102 163.46094 C 185.44772 160.91594 185.90139 158.36715 186.78125 155.94727 C 189.42662 147.68973 197.60396 141.5061 208.16016 140.60156 C 211.2818 140.33935 215.72463 140.54736 219.51562 141.20898 L 223.70703 141.92969 C 224.30082 141.97909 224.79567 142.03405 225.0918 142.00781 C 225.96783 141.93601 226.43245 141.59968 227.42188 140.5332 L 228.98633 140.40039 L 228.99023 140.39844 z M 177.22656 142.14648 L 185.52539 196.77148 L 186.23828 201.48438 C 187.05879 207.43689 187.70841 208.93543 190.08203 211.22656 C 190.08203 211.22656 173.56942 218.94244 171.23438 205.66992 L 171.16211 204.8457 L 170.69922 200.63086 L 167.74609 177.00195 L 145.58984 213.69531 C 145.15954 213.61511 144.73062 213.53528 144.29492 213.45508 C 143.18606 213.25146 142.07796 213.01348 140.95898 212.75977 L 128.5332 179.72852 L 118.0625 208.12891 C 114.29062 207.76801 110.1849 207.63984 105.59961 207.9082 C 104.76213 207.9576 103.93657 208.02414 103.11914 208.10742 L 128.79102 146.2793 L 130.85156 146.10156 L 146.98438 182.16602 L 174.86133 142.34766 L 177.22656 142.14648 z M 118.83594 143.28516 C 119.12685 143.32017 119.40866 143.36608 119.70898 143.38867 C 120.37973 143.43915 121.05865 143.4488 121.74219 143.43945 L 117.85938 151.69141 L 118.83594 143.28516 z M 110.26562 150.56445 L 110.00586 152.34375 C 105.42112 154.60355 104.0947 157.31599 103.03125 166.75 L 100.67773 189.0625 C 100.33382 192.31295 100.10685 194.50812 99.914062 195.87695 C 99.727444 197.36744 98.347076 205.20541 97.255859 209.02344 C 83.042532 211.96555 72.373102 219.64741 66.587891 224.76172 C 66.391246 224.76172 66.20009 224.76472 65.998047 224.76172 C 51.840242 224.76372 42.362593 217.37195 41.292969 204.82617 C 41.054651 202.04076 41.390109 197.4444 42.183594 189.69336 L 44.078125 171.7793 C 44.418205 168.43174 44.607817 165.8166 44.458984 164.06836 C 44.159776 160.56651 43.231186 159.39418 40.333984 158.29297 L 40.597656 156.50586 C 46.695957 156.19352 49.167186 155.98241 53.703125 155.59375 C 58.234437 155.21052 60.916103 154.97718 67.392578 154.2207 L 67.128906 156.00781 C 62.659904 158.36323 61.32916 161.06817 60.361328 170.38867 L 58.201172 190.09375 L 57.679688 194.91211 C 57.359658 198.47028 57.176113 201.18276 57.291016 202.52148 C 57.828357 208.81128 62.49808 212.4601 69.197266 211.88867 C 74.144385 211.46608 78.401181 209.02415 80.669922 205.19922 C 83.144592 201.35454 83.441341 199.98232 84.570312 188.87891 L 86.849609 168.12891 C 87.204341 164.98438 87.276867 162.17573 87.121094 160.32422 C 86.827314 156.9196 85.998105 155.74648 83.105469 154.64453 L 83.263672 152.86328 C 89.158387 152.57024 91.321335 152.3841 96.472656 151.94531 C 101.62583 151.50495 104.10182 151.29242 110.26562 150.56445 z M 185.68164 202.30469 C 185.68164 202.3124 185.68359 202.31887 185.68359 202.32812 L 185.6875 202.33789 L 185.68164 202.30469 z M 196.9082 238.41992 L 221.82617 283.49023 C 222.19633 284.15651 221.94532 284.99179 221.25977 285.34961 C 220.57498 285.7082 219.71935 285.46002 219.34766 284.79297 L 219.35156 284.78711 L 193.88281 239.16211 C 194.88212 238.93371 195.88908 238.68846 196.9082 238.41992 z "
         style="fill:#ffffff;fill-opacity:1;stroke-width:0.6169247" /></g></g></svg>
